X:8
T:No.90 The Cat That Kittled in Jamie's Wig
C:highland(schottische)
L:1/8
M:4/4
K:G
c>B||A<A, A,>B, C>D E>F|G>A (3GEF G2 c>B|
A<A, A,>B, C>D E>d|(3cBA (3BAG A>e c>B|
A<A, A,>B, C>D E>F|G>A (3GEF G2 c>d|
(3edc (3Bcd (3cBc (3EFG|
[1(3ABc (3BAG A>e c>B:|[2(3ABc (3BAG A>e ^c>d||
e<a a>b g>f g>d|e<a a>f g2 (3Bcd|
e<a a>b g>f g>d|(3efg (3dcB A2 ^c>d|
e<a a>b g>f g>d|e<a a>f g>f g>a|
(3bag (3fga (3gfg (3Bcd|(3efg (3dcB (3cec (3BeB||
